!!! OTL: Literature17
!!! Chapter: 5
!!! Section: I
!!! Page: 348
!!! Mode: 
!!! Encoder: DJB
**kern
*staff1
*I"Piano
=1-
*clefG2
*k[b-e-a-]
*E-:
*M3/4
8e-/L
8g/J
2b-\
=2
4g/
4b-\
4b-\
=3
8b-\L
8cc\J
2a-/
=4
4f/
4cc\
4cc\
=5
8b-\L
8b-\J
2g/
=6
4B-/
4g/
4g/
=7
8g/L
8a-/J
2f/
=8
8B-/L
8d/J
4f/
4f/
=9
8f/L
8g/J
2e-/
==
*-
